X: 1
T:Steal Away  "CYMRU"
M:6/8
L:1/8
Q:80
C:
S:Slow Air
K:HP
|: A|
{g}f2{gf}g{ef}e2A|
{g}e/2g3/2f{Gdc}d2A|
{g}B2d{gf}g2f|  !
{gfg}fe2{A}e2a| |
{fg}f2{gf}g{ef}e2A|
{g}e/2g3/2f{Gdc}d2A|  !
{g}B/2g3/2e{g}c3/2B/2c|
{Gdc}d3{gdc}d2:|
